X:377
T:Waterloo Dance, The
R:polka 48
C:Trad arr. P J Headford
M:2/4
L:1/16
Q:1/4=100
K:D
|:AG|F2dB A2fe|d2d2 d2cd|e2e2 dcBc|defd A2AG|
F2dB A2fe|d2d2 d2cd|e2e2 dcBc|d2fe d2:|
K:A
|:cd|e2ec a2af|e2ec A2A2|GABc dBfe|d4c2cd|
e2ec a2af|e2ec A3A|GABc dBAG|A4- A2:|
K:D
|:fg|a6f2|b2a2 g2f2|e2e2 edef|d2e2 f2g2|
a6 f2|b2a2 g2f2|e2e2 edef|d2f2 d2:||

